ui/src/assets/img/nav-icon-linkedIn1.svg

<?xml version="1.0"?><svg xmlns="http://www.w3.org/2000/svg"  viewBox="0 0 50 50" width="50px" height="50px">    <path d="M 8 3.0097656 C 4.53 3.0097656 2.0097656 5.0892187 2.0097656 7.9492188 C 2.0097656 10.819219 4.59 12.990234 8 12.990234 C 11.47 12.990234 13.990234 10.870625 13.990234 7.890625 C 13.830234 5.020625 11.36 3.0097656 8 3.0097656 z M 3 15 C 2.45 15 2 15.45 2 16 L 2 45 C 2 45.55 2.45 46 3 46 L 13 46 C 13.55 46 14 45.55 14 45 L 14 16 C 14 15.45 13.55 15 13 15 L 3 15 z M 18 15 C 17.45 15 17 15.45 17 16 L 17 45 C 17 45.55 17.45 46 18 46 L 27 46 C 27.552 46 28 45.552 28 45 L 28 30 L 28 29.75 L 28 29.5 C 28 27.13 29.820625 25.199531 32.140625 25.019531 C 32.260625 24.999531 32.38 25 32.5 25 C 32.62 25 32.739375 24.999531 32.859375 25.019531 C 35.179375 25.199531 37 27.13 37 29.5 L 37 45 C 37 45.552 37.448 46 38 46 L 47 46 C 47.55 46 48 45.55 48 45 L 48 28 C 48 21.53 44.529063 15 36.789062 15 C 33.269062 15 30.61 16.360234 29 17.490234 L 29 16 C 29 15.45 28.55 15 28 15 L 18 15 z"/></svg>

<svg xmlns="http://www.w3.org/2000/svg" xmlns:xlink="http://www.w3.org/1999/xlink" viewBox="0,0,256,256" width="100px" height="100px"><g fill="#ffffff" fill-rule="nonzero" stroke="none" stroke-width="1" stroke-linecap="butt" stroke-linejoin="miter" stroke-miterlimit="10" stroke-dasharray="" stroke-dashoffset="0" font-family="none" font-weight="none" font-size="none" text-anchor="none" style="mix-blend-mode: normal"><g transform="scale(5.12,5.12)"><path d="M8,3.00977c-3.47,0 -5.99023,2.07945 -5.99023,4.93945c0,2.87 2.58023,5.04102 5.99023,5.04102c3.47,0 5.99023,-2.11961 5.99023,-5.09961c-0.16,-2.87 -2.63023,-4.88086 -5.99023,-4.88086zM3,15c-0.55,0 -1,0.45 -1,1v29c0,0.55 0.45,1 1,1h10c0.55,0 1,-0.45 1,-1v-29c0,-0.55 -0.45,-1 -1,-1zM18,15c-0.55,0 -1,0.45 -1,1v29c0,0.55 0.45,1 1,1h9c0.552,0 1,-0.448 1,-1v-15v-0.25v-0.25c0,-2.37 1.82062,-4.30047 4.14063,-4.48047c0.12,-0.02 0.23938,-0.01953 0.35938,-0.01953c0.12,0 0.23938,-0.00047 0.35938,0.01953c2.32,0.18 4.14063,2.11047 4.14063,4.48047v15.5c0,0.552 0.448,1 1,1h9c0.55,0 1,-0.45 1,-1v-17c0,-6.47 -3.47094,-13 -11.21094,-13c-3.52,0 -6.17906,1.36023 -7.78906,2.49023v-1.49023c0,-0.55 -0.45,-1 -1,-1z"></path></g></g></svg>
